X: 24821
T: Maggie Pickins
R: strathspey
M: 4/4
K: Amajor
|:c>B|A>FE>F A<B c2|e>cB>A B<AF>B|A>FE>F A<Bc>d|e>c (3BcB A2:|
A>e|f>ec>e f<e a2|A>B (3cBA B<A F2|(3fgf c>e f<ea>A|A>Bc>A (3BcB A>e|
f>ec>e f<e a2|A2 (3cBA B<AF>B|(3ABA E>F A<Bc>f|e<ac>A (3BcB||

